X:1
T: General Longstreet's Reel
C:
R:Reel
Q: 232
K:D
M:4/4
L:1/8
|:D2 F2 A2 d2|fe fb af df|gd Bg fd Af|ef ge cA GE|
D2 F2 A2 d2|fe fb af df|gd Bg fd Af|ea ge d2 d2:|
|:af df Ad FA|bg dg Bd GB|af df Ad FA|ge cA ge cA|
af df Ad FA|bg dg Bd GB|cb ag fe dc|d2 f2 d4:|
